tests/luts/synthetic/shaper_3d.cube
# Shaper LUT, followed by 2D LUT.
# Empty line between data of the two.

LUT_1D_SIZE 3
LUT_1D_INPUT_RANGE 0.00123 0.98765

LUT_3D_SIZE 2
LUT_3D_INPUT_RANGE 0.0927061729 1.0196260353

0.12345 0.01234 0.00123
0.23456 0.45678 0.56789
0.98765 0.56789 0.87654

0.0 1.0 1.0
0.1 0.9 2.5
0.2 0.8 4.0
0.3 0.7 5.5
0.4 0.6 7.0
0.5 0.5 9.5
0.6 0.4 11.0
0.7 0.3 13.5
