tests/luts/davinci/DCI-P3 Kodak 2383 D65.cube
# Resolve Film Look LUT
#   Input: Cineon Log 
#        : floating point data (range 0.0 - 1.0)
#  Output: Kodak 2383 film stock 'look' with D65 White Point
#        : floating point data (range 0.0 - 1.0)
# Display: DCI-P3, Gamma 2.6
LUT_3D_SIZE 33
LUT_3D_INPUT_RANGE 0.0 1.0
0.041701 0.043656 0.054925
0.043792 0.044404 0.055829
0.045167 0.045055 0.056727
0.049409 0.046048 0.057541
0.053980 0.047362 0.058203
0.055365 0.048713 0.058702
0.060602 0.050487 0.059134
0.075020 0.053328 0.059623
0.088691 0.056841 0.060082
0.101017 0.060647 0.060589
0.122810 0.065001 0.061350
0.154546 0.070297 0.061850
0.184052 0.076555 0.062310
0.214877 0.082164 0.062630
0.251708 0.086102 0.063387
0.294426 0.088699 0.063800
0.338022 0.090922 0.065015
0.378246 0.092064 0.065821
0.413547 0.091097 0.067677
0.447503 0.088248 0.069530
0.479195 0.083411 0.072133
0.506095 0.078946 0.074215
0.527572 0.072950 0.075900
0.545627 0.064967 0.077260
0.560971 0.057867 0.078355
0.573839 0.051777 0.079316
0.584273 0.043436 0.080190
0.592670 0.036155 0.080942
0.599700 0.030907 0.081623
0.605707 0.027070 0.082286
0.610273 0.025780 0.082890
0.614086 0.025825 0.083459
0.618016 0.024784 0.084027
0.042691 0.045595 0.055977
0.044684 0.046316 0.056831
0.045942 0.046936 0.057679
0.050089 0.047915 0.058461
0.054630 0.049263 0.059124
0.056088 0.050695 0.059660
0.061455 0.052415 0.060127
0.076498 0.055266 0.060639
0.090705 0.058923 0.061075
0.103450 0.062839 0.061545
0.126093 0.067817 0.062356
0.159058 0.073333 0.062752
0.189795 0.079728 0.063340
0.221713 0.085091 0.063464
0.259340 0.089341 0.064535
0.302673 0.092128 0.064938
0.346964 0.094419 0.065933
0.387708 0.095831 0.067072
0.423364 0.094856 0.068586
0.457568 0.092238 0.070910
0.489429 0.087434 0.073279
0.516366 0.082864 0.075552
0.537760 0.078908 0.077171
0.555552 0.072375 0.078393
0.570590 0.065680 0.079423
0.583165 0.060270 0.080339
0.593310 0.056430 0.081179
0.601387 0.054077 0.081901
0.608154 0.051674 0.082565
0.613967 0.049873 0.083192
0.618387 0.050506 0.083773
0.622067 0.052322 0.084330
0.625879 0.053814 0.084885
0.043640 0.046973 0.056899
0.045542 0.047680 0.057709
0.046693 0.048281 0.058510
0.050651 0.049255 0.059263
0.055224 0.050603 0.059924
0.056626 0.051962 0.060480
0.062177 0.053659 0.060986
0.078038 0.056726 0.061543
0.092638 0.060459 0.061947
0.105692 0.064592 0.062420
0.129313 0.070128 0.063216
0.163260 0.075794 0.063586
0.195039 0.081855 0.064201
0.228036 0.087319 0.064328
0.266415 0.091756 0.065305
0.310402 0.094926 0.066075
0.355325 0.097373 0.066821
0.396600 0.098702 0.068163
0.432614 0.098168 0.069661
0.467073 0.095248 0.072114
0.499124 0.090795 0.074486
0.526139 0.085973 0.076788
0.547427 0.082062 0.078286
0.565016 0.077502 0.079466
0.579757 0.071823 0.080447
0.592073 0.066436 0.081339
0.601930 0.062833 0.082162
0.609717 0.060894 0.082866
0.616212 0.060109 0.083517
0.621819 0.060104 0.084113
0.626096 0.061214 0.084632
0.629670 0.062891 0.085126
0.633372 0.064407 0.085623
0.044843 0.050262 0.058218
0.046530 0.050843 0.058972
0.047481 0.051332 0.059719
0.051088 0.052146 0.060425
0.055500 0.053342 0.061063
0.056811 0.054623 0.061627
0.062671 0.056518 0.062192
0.079542 0.059902 0.062811
0.094601 0.063662 0.063185
0.108381 0.068559 0.063704
0.133037 0.074355 0.064412
0.167584 0.079747 0.064803
0.200562 0.085590 0.065357
0.234707 0.091725 0.065656
0.273964 0.096467 0.066344
0.318650 0.100242 0.067324
0.364251 0.102687 0.068195
0.406119 0.103999 0.069353
0.442479 0.103729 0.071074
0.477179 0.101590 0.073322
0.509383 0.097747 0.075861
0.536457 0.093166 0.078008
0.557666 0.089162 0.079440
0.575000 0.084701 0.080617
0.589481 0.081199 0.081607
0.601532 0.077855 0.082420
0.611164 0.075841 0.083207
0.618689 0.074965 0.083857
0.624952 0.074839 0.084450
0.630402 0.075416 0.085049
0.634577 0.076939 0.085616
0.638066 0.078866 0.086143
0.641670 0.080696 0.086640
0.045187 0.054652 0.060105
0.046849 0.055173 0.060816
0.047785 0.055603 0.061520
0.051290 0.056355 0.062191
0.055689 0.057555 0.062814
0.057139 0.059002 0.063401
0.063751 0.061435 0.064072
0.081260 0.064923 0.064696
0.097259 0.069068 0.065103
0.111590 0.074631 0.065698
0.136892 0.079947 0.066179
0.172428 0.085465 0.066756
0.206954 0.091798 0.067065
0.242268 0.098758 0.067589
0.282468 0.104045 0.068189
0.327891 0.107342 0.068924
0.374378 0.109774 0.069911
0.416955 0.111713 0.071283
0.453719 0.111613 0.072663
0.488617 0.110320 0.075040
0.520903 0.107432 0.077403
0.547966 0.104322 0.079318
0.569036 0.101770 0.080767
0.586124 0.097998 0.081900
0.600291 0.094685 0.082828
0.612125 0.092380 0.083591
0.621571 0.091435 0.084378
0.628930 0.091623 0.085103
0.635068 0.092597 0.085716
0.640431 0.094167 0.086272
0.644537 0.096473 0.086785
0.647974 0.099176 0.087267
0.651532 0.101384 0.087748
0.046026 0.057558 0.062256
0.047835 0.058050 0.062933
0.048914 0.058448 0.063604
0.052213 0.059169 0.064250
0.056902 0.060597 0.064896
0.058760 0.062353 0.065518
0.065602 0.064973 0.066200
0.083544 0.068494 0.066797
0.100517 0.073260 0.067284
0.114711 0.078740 0.067895
0.141010 0.084031 0.068283
0.177737 0.089996 0.068902
0.213668 0.097235 0.069240
0.250060 0.104397 0.069549
0.291049 0.109364 0.070372
0.337534 0.113462 0.071137
0.385052 0.116391 0.071894
0.428426 0.118517 0.073396
0.465606 0.119446 0.074823
0.500600 0.117746 0.076956
0.532904 0.115518 0.078908
0.559920 0.112633 0.080756
0.580832 0.110486 0.082052
0.597625 0.107909 0.083177
0.611494 0.105911 0.084178
0.623114 0.104940 0.085040
0.632457 0.105013 0.085747
0.639769 0.105865 0.086367
0.645855 0.107165 0.086941
0.651168 0.108764 0.087522
0.655258 0.111013 0.088125
0.658689 0.113563 0.088723
0.662240 0.115972 0.089320
0.044901 0.063290 0.064928
0.047240 0.063764 0.065571
0.048681 0.064165 0.066220
0.052812 0.065060 0.066873
0.058185 0.066826 0.067554
0.060116 0.068773 0.068181
0.067377 0.071507 0.068831
0.086433 0.075309 0.069424
0.103289 0.080205 0.070007
0.117842 0.085401 0.070475
0.145831 0.091488 0.070972
0.183711 0.097838 0.071466
0.220825 0.105536 0.071925
0.258332 0.112687 0.072047
0.300383 0.118171 0.072776
0.347921 0.122964 0.073672
0.396551 0.126808 0.074550
0.440768 0.129551 0.075777
0.478390 0.130921 0.077225
0.513527 0.130083 0.078826
0.545818 0.128057 0.080602
0.572756 0.125816 0.082261
0.593519 0.123940 0.083412
0.610025 0.121846 0.084670
0.623600 0.120427 0.085662
0.635028 0.119924 0.086449
0.644306 0.120575 0.087089
0.651577 0.122204 0.087735
0.657662 0.124330 0.088386
0.662982 0.126724 0.089052
0.667091 0.129742 0.089647
0.670545 0.133032 0.090199
0.674106 0.135617 0.090753
0.039607 0.075564 0.068623
0.042331 0.076178 0.069272
0.044108 0.076702 0.069922
0.050169 0.077716 0.070563
0.056457 0.079511 0.071203
0.058277 0.081625 0.071850
0.066399 0.084368 0.072433
0.088686 0.088322 0.072991
0.105981 0.093475 0.073654
0.122377 0.099314 0.074098
0.150686 0.105748 0.074608
0.190640 0.112780 0.075023
0.228945 0.120377 0.075315
0.267706 0.127951 0.075505
0.311047 0.134442 0.075899
0.359647 0.139787 0.076518
0.409414 0.144104 0.077405
0.454546 0.147589 0.078385
0.492639 0.149260 0.079509
0.527962 0.149398 0.080884
0.560287 0.148434 0.082484
0.587210 0.147253 0.083929
0.607872 0.146540 0.085149
0.624157 0.145458 0.086152
0.637481 0.144618 0.087127
0.648738 0.144739 0.088060
0.657924 0.145928 0.088783
0.665140 0.147799 0.089348
0.671193 0.150057 0.089866
0.676508 0.152627 0.090383
0.680642 0.155691 0.090971
0.684142 0.159011 0.091617
0.687757 0.162298 0.092306
0.035019 0.087509 0.072851
0.038054 0.088199 0.073533
0.040050 0.088774 0.074227
0.046667 0.089865 0.074915
0.053991 0.091774 0.075587
0.056029 0.094029 0.076282
0.066012 0.097103 0.076968
0.090362 0.101507 0.077586
0.110068 0.107049 0.078064
0.127499 0.113353 0.078513
0.157098 0.120301 0.078995
0.198158 0.127698 0.079281
0.238050 0.135805 0.079257
0.278381 0.143963 0.079340
0.322877 0.151164 0.079523
0.372519 0.156913 0.079977
0.423450 0.161922 0.080575
0.469618 0.166510 0.081135
0.508301 0.169233 0.082267
0.543855 0.170145 0.083398
0.576277 0.169953 0.084898
0.603236 0.169521 0.086244
0.623851 0.169255 0.087352
0.639995 0.168800 0.088209
0.653117 0.168449 0.089300
0.664242 0.169097 0.090151
0.673316 0.170792 0.090689
0.680429 0.173219 0.091224
0.686418 0.175977 0.091828
0.691729 0.178808 0.092458
0.695917 0.182114 0.093123
0.699507 0.185771 0.093688
0.703208 0.189357 0.094201
0.015260 0.099121 0.077684
0.028720 0.099844 0.078318
0.030851 0.100420 0.078936
0.039617 0.101575 0.079576
0.052436 0.103676 0.080275
0.056068 0.106082 0.080996
0.067224 0.109216 0.081646
0.092172 0.113948 0.082339
0.113834 0.120098 0.082888
0.133002 0.127136 0.083344
0.163842 0.134470 0.083573
0.206379 0.142413 0.083784
0.248016 0.151264 0.083727
0.289498 0.159621 0.083409
0.335354 0.167381 0.083184
0.386231 0.174164 0.083578
0.438510 0.180478 0.083896
0.485609 0.185527 0.084474
0.524861 0.188722 0.085282
0.560748 0.190481 0.086248
0.593303 0.190801 0.087814
0.620344 0.191024 0.088885
0.640988 0.191292 0.090237
0.657028 0.191240 0.090787
0.670038 0.191469 0.091400
0.681033 0.192453 0.092422
0.690004 0.194411 0.093237
0.696980 0.197005 0.093615
0.702883 0.200133 0.093944
0.708224 0.203831 0.094525
0.712523 0.207806 0.095229
0.716245 0.211865 0.095940
0.720054 0.215761 0.096640
0.000000 0.117329 0.083567
0.000000 0.117967 0.083892
0.000000 0.118523 0.084295
0.016413 0.119485 0.084529
0.039425 0.121950 0.085286
0.048323 0.124828 0.086116
0.063523 0.128562 0.086903
0.093062 0.133781 0.087526
0.116343 0.140469 0.088017
0.137477 0.148168 0.088419
0.170655 0.156428 0.088570
0.214989 0.165008 0.088495
0.258272 0.174262 0.088066
0.301875 0.183837 0.087588
0.348760 0.192053 0.087246
0.400856 0.199397 0.087289
0.454443 0.206599 0.087197
0.502658 0.212657 0.087495
0.542578 0.216693 0.087752
0.578763 0.218904 0.089073
0.611520 0.219956 0.090055
0.638691 0.220750 0.091104
0.659388 0.221581 0.092139
0.675374 0.221791 0.093156
0.688267 0.222257 0.093491
0.699195 0.223632 0.093959
0.708047 0.225840 0.094650
0.714911 0.228596 0.095259
0.720741 0.231884 0.095786
0.726075 0.235734 0.096159
0.730443 0.240055 0.096746
0.734268 0.244575 0.097447
0.738187 0.248940 0.098123
0.000000 0.142404 0.090408
0.000000 0.143348 0.090771
0.000121 0.144192 0.091224
0.000000 0.145379 0.091264
0.009387 0.147671 0.091350
0.018548 0.150941 0.092027
0.045361 0.155026 0.092375
0.090338 0.161150 0.093217
0.118379 0.168730 0.093482
0.141198 0.177360 0.093683
0.177072 0.186615 0.093738
0.223940 0.196198 0.093429
0.269483 0.206402 0.092708
0.314881 0.216682 0.091656
0.363395 0.225860 0.090802
0.416762 0.234058 0.090085
0.471669 0.242050 0.089857
0.520860 0.248615 0.089616
0.561488 0.253440 0.089860
0.598091 0.256360 0.090758
0.631093 0.258044 0.091373
0.658415 0.259331 0.092469
0.679213 0.260574 0.092964
0.695180 0.261186 0.093918
0.707991 0.261805 0.094493
0.718826 0.263249 0.094879
0.727614 0.265630 0.095352
0.734369 0.268503 0.095761
0.740085 0.271733 0.096209
0.745377 0.275507 0.096547
0.749780 0.280102 0.096965
0.753670 0.285076 0.097608
0.757627 0.289756 0.098236
0.000000 0.167668 0.097997
0.000000 0.168947 0.098430
0.000000 0.170099 0.098880
0.000066 0.171750 0.098973
0.000000 0.174288 0.098669
0.000000 0.177899 0.099119
0.017147 0.182231 0.099057
0.085156 0.188759 0.099321
0.118625 0.197443 0.099710
0.145316 0.207213 0.099691
0.184228 0.217621 0.099533
0.233400 0.228224 0.098828
0.281606 0.239466 0.097400
0.329137 0.250705 0.095756
0.379186 0.260769 0.094093
0.433943 0.269833 0.093279
0.490078 0.278406 0.092575
0.540332 0.285626 0.091823
0.581757 0.291133 0.092122
0.618792 0.294613 0.092087
0.652052 0.296729 0.092621
0.679574 0.298404 0.093117
0.700475 0.299846 0.093697
0.716427 0.300619 0.094251
0.729184 0.301453 0.094709
0.739982 0.303106 0.095034
0.748694 0.305550 0.095583
0.755374 0.308536 0.096012
0.761034 0.312057 0.096404
0.766303 0.316280 0.096669
0.770697 0.321334 0.096909
0.774566 0.326627 0.097370
0.778501 0.331604 0.097827
0.000000 0.193430 0.105504
0.000000 0.195016 0.105935
0.000000 0.196425 0.106406
0.000000 0.198406 0.106543
0.000000 0.201614 0.106392
0.000000 0.205749 0.106640
0.005432 0.210451 0.106129
0.065655 0.217071 0.105363
0.118594 0.226855 0.105577
0.148422 0.237822 0.105542
0.190397 0.249364 0.104979
0.242462 0.261098 0.104104
0.293759 0.273545 0.102420
0.343343 0.285801 0.099921
0.395327 0.296925 0.097755
0.451644 0.306898 0.096130
0.508952 0.316135 0.094723
0.560397 0.324180 0.093993
0.602575 0.330265 0.093314
0.640068 0.334148 0.093074
0.673650 0.336657 0.092800
0.701378 0.338602 0.093002
0.722430 0.340288 0.093117
0.738455 0.341264 0.093950
0.751139 0.342111 0.094219
0.761924 0.343928 0.094291
0.770643 0.346663 0.094591
0.777275 0.349910 0.094875
0.782897 0.353734 0.095150
0.788094 0.358097 0.095183
0.792413 0.363286 0.095262
0.796222 0.368815 0.095555
0.800128 0.374156 0.095862
0.000000 0.221706 0.112300
0.000000 0.223294 0.112256
0.000000 0.224971 0.112744
0.000000 0.227418 0.113035
0.000000 0.231282 0.113042
0.000003 0.236263 0.113485
0.000000 0.241832 0.113025
0.044273 0.248939 0.111418
0.114613 0.259456 0.111037
0.150791 0.271607 0.110398
0.196126 0.284436 0.109847
0.251818 0.297419 0.108279
0.305396 0.311131 0.106093
0.357422 0.324749 0.103468
0.411450 0.337171 0.100562
0.468587 0.347938 0.098021
0.527547 0.358287 0.096038
0.580185 0.367186 0.093996
0.623021 0.373829 0.092998
0.661123 0.378407 0.091808
0.695106 0.381453 0.091035
0.723206 0.383920 0.090731
0.744485 0.385894 0.090519
0.760544 0.386945 0.090795
0.773279 0.387902 0.091105
0.783986 0.389622 0.091434
0.792654 0.392295 0.091692
0.799188 0.395453 0.091878
0.804703 0.399201 0.091849
0.809844 0.403631 0.091665
0.814111 0.408882 0.091599
0.817844 0.414409 0.091703
0.821618 0.419618 0.091815
0.000000 0.252871 0.118905
0.000000 0.255189 0.119277
0.000000 0.257231 0.119869
0.000000 0.260089 0.120101
0.000000 0.264607 0.119952
0.000000 0.270259 0.120001
0.000000 0.276736 0.119209
0.032092 0.284569 0.117271
0.104384 0.295845 0.116052
0.149985 0.309331 0.115604
0.200342 0.323429 0.114251
0.259748 0.337841 0.112356
0.316682 0.353074 0.109199
0.371213 0.368265 0.105722
0.426576 0.381951 0.102318
0.485681 0.394095 0.098626
0.545972 0.405530 0.095059
0.599667 0.415386 0.092050
0.643622 0.423066 0.089571
0.682222 0.428281 0.087872
0.716707 0.431960 0.086237
0.745116 0.434794 0.085178
0.766552 0.436870 0.084939
0.782728 0.437914 0.084916
0.795400 0.438669 0.084896
0.806143 0.440339 0.085080
0.814800 0.443002 0.085261
0.821374 0.446278 0.085091
0.826848 0.449983 0.084869
0.831822 0.454120 0.084650
0.835866 0.458940 0.084462
0.839386 0.464064 0.084305
0.843040 0.469071 0.084004
0.000000 0.285219 0.125634
0.000000 0.287836 0.126250
0.000000 0.290184 0.126943
0.000000 0.293406 0.127168
0.000000 0.298587 0.127006
0.000000 0.305149 0.127191
0.000000 0.312800 0.126642
0.002926 0.321392 0.123743
0.084627 0.333415 0.121564
0.147345 0.348175 0.120410
0.203630 0.363649 0.118632
0.267302 0.379544 0.116157
0.327468 0.396391 0.112219
0.384712 0.413189 0.107645
0.442282 0.428425 0.103228
0.502753 0.441807 0.098154
0.564591 0.454456 0.092948
0.619696 0.465438 0.088139
0.664372 0.473880 0.084248
0.703901 0.479973 0.081396
0.738903 0.484268 0.078677
0.767718 0.487529 0.076354
0.789439 0.489806 0.074816
0.805617 0.490658 0.074595
0.818267 0.491187 0.074823
0.829007 0.492710 0.074817
0.837679 0.495347 0.074459
0.844127 0.498503 0.074175
0.849506 0.502120 0.073647
0.854416 0.506147 0.072965
0.858305 0.510706 0.072224
0.861624 0.515497 0.071456
0.865017 0.520120 0.070759
0.000000 0.314863 0.131944
0.000000 0.317836 0.132550
0.000000 0.320511 0.133261
0.000000 0.324216 0.133535
0.000000 0.330030 0.133286
0.000000 0.337343 0.133263
0.000036 0.345857 0.132523
0.000000 0.355498 0.129732
0.067237 0.368120 0.126731
0.143719 0.383934 0.124954
0.206867 0.400719 0.122537
0.274405 0.417981 0.119147
0.337733 0.436336 0.114684
0.397368 0.454671 0.108930
0.456835 0.471290 0.103266
0.518833 0.485945 0.096482
0.582033 0.499755 0.089212
0.638182 0.511743 0.082764
0.684007 0.521124 0.076535
0.724192 0.527936 0.069941
0.759731 0.532820 0.065157
0.788991 0.536535 0.062270
0.810952 0.538997 0.060567
0.827337 0.539919 0.059615
0.840000 0.540347 0.059539
0.850626 0.541691 0.059231
0.859288 0.544261 0.057935
0.865792 0.547413 0.055980
0.871100 0.550911 0.053749
0.875830 0.554665 0.051086
0.879436 0.558805 0.047925
0.882496 0.563181 0.044334
0.885662 0.567437 0.040864
0.000000 0.340215 0.136753
0.000000 0.343603 0.137316
0.000000 0.346550 0.137806
0.000000 0.350608 0.137954
0.000000 0.357124 0.138022
0.000000 0.365086 0.138135
0.000000 0.374362 0.137184
0.000000 0.384978 0.134157
0.051024 0.398100 0.130375
0.139402 0.414846 0.128340
0.209329 0.432740 0.125446
0.280554 0.451195 0.121420
0.346317 0.470852 0.115606
0.408196 0.490516 0.109134
0.469329 0.508402 0.102302
0.532576 0.524180 0.093524
0.596921 0.539080 0.084255
0.654238 0.552094 0.074062
0.700820 0.562331 0.062643
0.741488 0.569795 0.053819
0.777789 0.575358 0.040169
0.807490 0.579571 0.017472
0.829818 0.582532 0.002496
0.846545 0.583839 0.001901
0.859396 0.584473 0.001896
0.870253 0.585982 0.001885
0.878968 0.588566 0.001832
0.885422 0.591593 0.001748
0.890680 0.594903 0.001656
0.895351 0.598417 0.001549
0.898848 0.602243 0.001421
0.901693 0.606216 0.001272
0.904763 0.610161 0.001127
0.000000 0.364060 0.141193
0.000000 0.367922 0.141805
0.000000 0.371431 0.142536
0.000000 0.376105 0.142693
0.000000 0.383067 0.142194
0.000000 0.391614 0.141840
0.000000 0.401480 0.140608
0.000000 0.412892 0.137577
0.014235 0.426605 0.132853
0.134600 0.444221 0.130218
0.211379 0.463170 0.127007
0.285596 0.482774 0.121980
0.353902 0.503704 0.115485
0.417396 0.524645 0.107691
0.480319 0.543786 0.098653
0.544761 0.560710 0.087738
0.610120 0.576737 0.074876
0.668250 0.590769 0.056708
0.715604 0.601961 0.032431
0.757305 0.610628 0.000000
0.794933 0.617795 0.000000
0.825587 0.623231 0.000000
0.848632 0.627002 0.000000
0.865603 0.628753 0.000000
0.878671 0.629717 0.000000
0.889533 0.631293 0.000000
0.898356 0.633793 0.000000
0.904758 0.636528 0.000000
0.909861 0.639405 0.000000
0.914322 0.642388 0.000000
0.917557 0.645557 0.000000
0.920049 0.648770 0.000000
0.922705 0.651926 0.000000
0.000000 0.386089 0.145101
0.000000 0.390446 0.145543
0.000000 0.394426 0.146102
0.000000 0.399508 0.146017
0.000000 0.406972 0.145526
0.000000 0.416044 0.145296
0.000000 0.426547 0.143995
0.000161 0.438699 0.140328
0.000000 0.453181 0.135124
0.128909 0.471346 0.131450
0.212408 0.491244 0.127775
0.289951 0.511914 0.122038
0.360723 0.534006 0.114314
0.426281 0.556165 0.105482
0.490168 0.576436 0.093556
0.555608 0.594450 0.080029
0.621600 0.611486 0.059660
0.680724 0.626749 0.020292
0.729531 0.639907 0.000000
0.772821 0.650219 0.000147
0.810820 0.657991 0.000000
0.842050 0.664068 0.000000
0.865405 0.668372 0.000000
0.882879 0.670714 0.000000
0.896346 0.672134 0.000000
0.907396 0.673885 0.000000
0.916120 0.676207 0.000000
0.922406 0.678584 0.000000
0.927304 0.680969 0.000000
0.931479 0.683351 0.000000
0.934341 0.685767 0.000000
0.936495 0.688200 0.000000
0.938806 0.690615 0.000000
0.000000 0.404131 0.148424
0.000000 0.408985 0.148900
0.000000 0.413404 0.149456
0.000000 0.419057 0.149598
0.000000 0.427024 0.148930
0.000000 0.436391 0.147965
0.000000 0.447301 0.146309
0.000000 0.460003 0.142554
0.000000 0.475163 0.137126
0.125977 0.493753 0.132544
0.214460 0.514415 0.128303
0.294433 0.535913 0.121764
0.366836 0.558916 0.113187
0.433538 0.582033 0.103242
0.498410 0.603209 0.089053
0.564460 0.622099 0.073108
0.631356 0.640128 0.033168
0.691882 0.657265 0.000270
0.741782 0.671568 0.000000
0.785330 0.682480 0.000000
0.823899 0.690904 0.000000
0.855639 0.697557 0.000000
0.879561 0.702440 0.000000
0.897255 0.705204 0.000000
0.911018 0.707004 0.000000
0.922331 0.708970 0.000000
0.931031 0.711195 0.000000
0.937129 0.713253 0.000000
0.941866 0.715235 0.000000
0.945946 0.717211 0.000000
0.948601 0.719095 0.000000
0.950502 0.720933 0.000000
0.952575 0.722773 0.000000
0.000000 0.417488 0.151359
0.000000 0.422757 0.151681
0.000000 0.427643 0.152218
0.000000 0.433687 0.152032
0.000000 0.441906 0.150977
0.000000 0.451597 0.150091
0.000000 0.462798 0.148437
0.000000 0.475831 0.144428
0.000000 0.491384 0.138282
0.125464 0.510335 0.133477
0.217065 0.531482 0.128888
0.298028 0.553544 0.121963
0.371750 0.577179 0.112778
0.438945 0.600920 0.101208
0.504652 0.622752 0.085554
0.571521 0.642314 0.063879
0.639204 0.661433 0.018677
0.700672 0.679774 0.000000
0.750726 0.694671 0.000001
0.794881 0.706161 0.000000
0.833905 0.715135 0.000000
0.865916 0.722235 0.000000
0.890055 0.727509 0.000000
0.908231 0.730761 0.000000
0.922184 0.732864 0.000000
0.933547 0.734954 0.000000
0.942416 0.737185 0.000000
0.948576 0.739107 0.000000
0.953229 0.740868 0.000000
0.957120 0.742537 0.000000
0.959599 0.744065 0.000000
0.961300 0.745511 0.000000
0.963180 0.746971 0.000000
0.000000 0.427363 0.153355
0.000000 0.433362 0.154323
0.000000 0.438520 0.154315
0.000000 0.444802 0.153826
0.000000 0.453327 0.152746
0.000000 0.463243 0.151818
0.000000 0.474519 0.149845
0.000000 0.487748 0.145384
0.000000 0.503539 0.139059
0.126256 0.522722 0.133950
0.219752 0.544226 0.129302
0.301339 0.566656 0.122143
0.375137 0.590692 0.112248
0.443393 0.614909 0.099550
0.509284 0.637215 0.082672
0.576564 0.657282 0.053524
0.644783 0.677330 0.007464
0.706830 0.696589 0.000000
0.757265 0.712006 0.000000
0.801733 0.723999 0.000000
0.840846 0.733382 0.000000
0.873288 0.740935 0.000000
0.897793 0.746664 0.000000
0.916065 0.750287 0.000000
0.930504 0.752800 0.000000
0.942132 0.755109 0.000000
0.950936 0.757290 0.000000
0.956943 0.759019 0.000000
0.961528 0.760538 0.000000
0.965468 0.762037 0.000000
0.967954 0.763350 0.000000
0.969634 0.764552 0.000000
0.971500 0.765776 0.000000
0.000000 0.435524 0.155573
0.000000 0.441561 0.155364
0.000000 0.447375 0.155759
0.000000 0.454234 0.155635
0.000000 0.463113 0.154760
0.000000 0.472918 0.153155
0.000000 0.484250 0.150852
0.000000 0.497540 0.146032
0.000000 0.513471 0.139983
0.130238 0.532870 0.134625
0.223239 0.554536 0.129804
0.305294 0.577206 0.122498
0.378880 0.601482 0.112226
0.447227 0.625954 0.098703
0.513365 0.648596 0.080611
0.580662 0.669101 0.044173
0.649274 0.689882 0.000000
0.711612 0.709677 0.000042
0.762348 0.725533 0.000000
0.806822 0.737890 0.000000
0.846180 0.747675 0.000000
0.878741 0.755584 0.000000
0.903382 0.761646 0.000000
0.922180 0.765712 0.000000
0.936744 0.768552 0.000000
0.948624 0.771069 0.000000
0.957573 0.773275 0.000000
0.963679 0.774915 0.000000
0.968294 0.776301 0.000000
0.972170 0.777625 0.000000
0.974576 0.778735 0.000000
0.976181 0.779724 0.000000
0.977937 0.780724 0.000000
0.000000 0.442311 0.156921
0.000000 0.449107 0.157048
0.000000 0.455487 0.157319
0.000000 0.462820 0.157079
0.000000 0.471928 0.155977
0.000000 0.482045 0.154808
0.000000 0.493218 0.151867
0.000000 0.506572 0.147162
0.000000 0.522514 0.140944
0.139608 0.542160 0.135732
0.229324 0.563872 0.130810
0.310392 0.586590 0.123457
0.383816 0.610955 0.112743
0.451801 0.635535 0.098925
0.517642 0.658309 0.080247
0.584777 0.679065 0.043448
0.653549 0.700236 0.000000
0.715676 0.720282 0.000000
0.766557 0.736426 0.000000
0.811025 0.749066 0.000000
0.850592 0.759146 0.000000
0.883176 0.767322 0.000000
0.908149 0.773711 0.000000
0.927058 0.778067 0.000000
0.941759 0.781136 0.000000
0.953881 0.783837 0.000000
0.962952 0.786074 0.000000
0.969112 0.787646 0.000000
0.973730 0.788916 0.000000
0.977583 0.790120 0.000000
0.979949 0.791093 0.000000
0.981495 0.791913 0.000000
0.983214 0.792750 0.000000
0.000000 0.447929 0.158572
0.000000 0.455376 0.158531
0.000000 0.462410 0.158658
0.000000 0.470246 0.158232
0.000000 0.479700 0.157040
0.000000 0.489886 0.155657
0.000000 0.501227 0.153088
0.000372 0.514532 0.148196
0.000000 0.530364 0.141503
0.151510 0.550247 0.136598
0.237496 0.571891 0.131720
0.316401 0.594545 0.124501
0.389190 0.618823 0.113471
0.456657 0.643353 0.099525
0.522109 0.666138 0.080881
0.588843 0.686927 0.043779
0.657359 0.708191 0.000000
0.719119 0.728323 0.000000
0.770056 0.744631 0.000000
0.814287 0.757399 0.000000
