tests/luts/davinci/DCI-P3 Kodak 2383 D65.cube
# Resolve Film Look LUT
#   Input: Cineon Log 
#        : floating point data (range 0.0 - 1.0)
#  Output: Kodak 2383 film stock 'look' with D65 White Point
#        : floating point data (range 0.0 - 1.0)
# Display: DCI-P3, Gamma 2.6
LUT_3D_SIZE 9
LUT_3D_INPUT_RANGE 0.0 1.0
0.041701 0.043656 0.054925
0.053980 0.047362 0.058203
0.088691 0.056841 0.060082
0.184052 0.076555 0.062310
0.338022 0.090922 0.065015
0.479195 0.083411 0.072133
0.560971 0.057867 0.078355
0.599700 0.030907 0.081623
0.618016 0.024784 0.084027
0.045187 0.054652 0.060105
0.055689 0.057555 0.062814
0.097259 0.069068 0.065103
0.206954 0.091798 0.067065
0.374378 0.109774 0.069911
0.520903 0.107432 0.077403
0.600291 0.094685 0.082828
0.635068 0.092597 0.085716
0.651532 0.101384 0.087748
0.035019 0.087509 0.072851
0.053991 0.091774 0.075587
0.110068 0.107049 0.078064
0.238050 0.135805 0.079257
0.423450 0.161922 0.080575
0.576277 0.169953 0.084898
0.653117 0.168449 0.089300
0.686418 0.175977 0.091828
0.703208 0.189357 0.094201
0.000000 0.167668 0.097997
0.000000 0.174288 0.098669
0.118625 0.197443 0.099710
0.281606 0.239466 0.097400
0.490078 0.278406 0.092575
0.652052 0.296729 0.092621
0.729184 0.301453 0.094709
0.761034 0.312057 0.096404
0.778501 0.331604 0.097827
0.000000 0.285219 0.125634
0.000000 0.298587 0.127006
0.084627 0.333415 0.121564
0.327468 0.396391 0.112219
0.564591 0.454456 0.092948
0.738903 0.484268 0.078677
0.818267 0.491187 0.074823
0.849506 0.502120 0.073647
0.865017 0.520120 0.070759
0.000000 0.386089 0.145101
0.000000 0.406972 0.145526
0.000000 0.453181 0.135124
0.360723 0.534006 0.114314
0.621600 0.611486 0.059660
0.810820 0.657991 0.000000
0.896346 0.672134 0.000000
0.927304 0.680969 0.000000
0.938806 0.690615 0.000000
0.000000 0.435524 0.155573
0.000000 0.463113 0.154760
0.000000 0.513471 0.139983
0.378880 0.601482 0.112226
0.649274 0.689882 0.000000
0.846180 0.747675 0.000000
0.936744 0.768552 0.000000
0.968294 0.776301 0.000000
0.977937 0.780724 0.000000
0.000000 0.457468 0.162774
0.000000 0.493962 0.159859
0.084352 0.544935 0.144886
0.402707 0.631456 0.118326
0.663743 0.718416 0.015692
0.857807 0.777712 0.000000
0.950221 0.801646 0.000000
0.983035 0.809792 0.000000
0.992419 0.812764 0.000000
0.000000 0.489238 0.184797
0.000000 0.536250 0.178746
0.223102 0.585917 0.169401
0.453087 0.662026 0.152643
0.684972 0.737634 0.118701
0.860393 0.786592 0.072368
0.949962 0.808698 0.000000
0.984097 0.817087 0.000000
0.993405 0.819270 0.057318
0.042385 0.045162 0.065437
0.054201 0.048607 0.069209
0.090393 0.058025 0.072037
0.192044 0.078981 0.075468
0.349390 0.091664 0.078979
0.491375 0.082172 0.085635
0.572261 0.052329 0.091002
0.610593 0.000000 0.094515
0.628791 0.000000 0.097924
0.041264 0.057038 0.072276
0.057248 0.060113 0.074938
0.100149 0.072104 0.078568
0.214646 0.095040 0.081594
0.386285 0.112446 0.085530
0.533692 0.108822 0.091669
0.612426 0.095631 0.096541
0.646798 0.094594 0.100282
0.663017 0.103508 0.103680
0.020513 0.092155 0.086872
0.053071 0.096511 0.089697
0.112053 0.112306 0.093487
0.247188 0.142220 0.096088
0.436524 0.168557 0.098880
0.590129 0.176275 0.103306
0.666426 0.174895 0.106859
0.699287 0.182116 0.109952
0.716531 0.198094 0.114271
0.000000 0.178026 0.115671
0.000000 0.184946 0.116845
0.119238 0.208941 0.117908
0.291853 0.252757 0.118120
0.505148 0.292161 0.116056
0.668208 0.310278 0.116633
0.744883 0.314689 0.118672
0.776264 0.326183 0.121088
0.793981 0.346944 0.125421
0.000000 0.300846 0.146402
0.000000 0.315173 0.148378
0.070145 0.351119 0.143679
0.337431 0.416598 0.138450
0.580837 0.476065 0.126837
0.756423 0.505618 0.117962
0.835534 0.512534 0.116162
0.866392 0.524023 0.117476
0.881810 0.542459 0.120481
0.000000 0.403461 0.169484
0.000000 0.425429 0.170296
0.000000 0.472969 0.162275
0.368191 0.555367 0.148718
0.636905 0.634687 0.121360
0.825399 0.678021 0.093094
0.909583 0.690946 0.079745
0.939545 0.698537 0.079065
0.950909 0.708689 0.085131
0.000000 0.451315 0.183697
0.000000 0.479593 0.183959
0.000000 0.531438 0.173885
0.384021 0.620116 0.156932
0.660992 0.708514 0.122715
0.855402 0.760170 0.075292
0.944433 0.779201 0.048257
0.974920 0.785822 0.043422
0.983688 0.790212 0.063815
0.000000 0.474689 0.205534
0.000000 0.510985 0.204852
0.000000 0.561669 0.194948
0.401577 0.648408 0.182403
0.671450 0.735525 0.157762
0.864088 0.788637 0.130288
0.955461 0.809834 0.114393
0.987514 0.817372 0.113687
0.996618 0.820598 0.126784
0.000000 0.512877 0.268532
0.000000 0.559813 0.270324
0.167076 0.607393 0.267763
0.443245 0.683820 0.266821
0.685966 0.759315 0.260348
0.866051 0.808088 0.253089
0.956916 0.829482 0.249911
0.990626 0.837709 0.252998
0.998318 0.839123 0.263603
0.037880 0.045103 0.104900
0.052293 0.048561 0.108409
0.091296 0.058009 0.113806
0.194931 0.078761 0.120705
0.355991 0.091227 0.126289
0.500510 0.079785 0.131611
0.582201 0.037927 0.135411
0.621679 0.000000 0.140932
0.639868 0.000000 0.147424
0.033725 0.059672 0.114692
0.052903 0.061556 0.117551
0.099430 0.074458 0.123924
0.217799 0.097109 0.131182
0.393472 0.114235 0.137301
0.543676 0.109597 0.142245
0.623342 0.095366 0.145817
0.657754 0.094476 0.150848
0.673746 0.104038 0.157697
0.000000 0.100567 0.136953
0.014240 0.103951 0.138374
0.108157 0.119418 0.145469
0.249937 0.148851 0.153193
0.443908 0.174861 0.158908
0.600213 0.181593 0.162384
0.677694 0.179985 0.165217
0.710845 0.188196 0.169876
0.727833 0.204990 0.178746
0.000000 0.193122 0.173770
0.000000 0.199976 0.175016
0.100911 0.222238 0.177998
0.292102 0.265773 0.184970
0.512179 0.305083 0.188555
0.678879 0.323046 0.190162
0.756419 0.326797 0.191566
0.788048 0.338595 0.196042
0.805581 0.360412 0.205165
0.000000 0.322352 0.211817
0.000000 0.336259 0.214399
0.000000 0.371738 0.214479
0.331970 0.436457 0.217921
0.585934 0.496070 0.217207
0.766212 0.525242 0.214742
0.846713 0.531799 0.214236
0.877523 0.543053 0.218205
0.892550 0.562199 0.227069
0.000000 0.427967 0.241692
0.000000 0.449626 0.244247
0.000063 0.497402 0.243797
0.356068 0.577928 0.241655
0.638507 0.657496 0.236169
0.832784 0.701062 0.229788
0.918933 0.713869 0.227575
0.948916 0.721110 0.230339
0.960000 0.731616 0.239230
0.000000 0.475814 0.264742
0.000000 0.504495 0.268734
0.000000 0.556303 0.268105
0.365946 0.642161 0.264519
0.658809 0.730939 0.258555
0.859460 0.782831 0.250663
0.950670 0.801551 0.247157
0.981477 0.808237 0.249603
0.989933 0.812839 0.258756
0.000000 0.501843 0.305413
0.000000 0.537967 0.310834
0.000115 0.588561 0.311488
0.377705 0.671464 0.310929
0.665057 0.758743 0.309933
0.864115 0.811892 0.304897
0.957713 0.832816 0.301181
0.990365 0.840310 0.303427
0.998587 0.843169 0.312441
0.000000 0.540639 0.386894
0.000000 0.587307 0.396552
0.000000 0.632341 0.398751
0.417896 0.707150 0.407719
0.676409 0.782579 0.413775
0.861767 0.831136 0.415134
0.954353 0.852168 0.414691
0.988797 0.859914 0.417381
0.998363 0.862786 0.426534
0.015604 0.009584 0.198952
0.041872 0.010071 0.204003
0.089022 0.033689 0.216577
0.198631 0.061480 0.232115
0.363921 0.076071 0.243758
0.509891 0.049774 0.250940
0.594654 0.000051 0.257018
0.634489 0.000000 0.264326
0.652182 0.000000 0.273189
0.000000 0.046188 0.216147
0.019086 0.055199 0.220761
0.094566 0.064991 0.234394
0.220938 0.089383 0.251145
0.401773 0.107409 0.263900
0.553775 0.100486 0.270777
0.633677 0.081179 0.274213
0.667466 0.079921 0.280348
0.683517 0.093779 0.290234
0.000000 0.106081 0.253638
0.000000 0.109351 0.257698
0.091780 0.127278 0.268797
0.250375 0.155201 0.287178
0.451127 0.180305 0.300534
0.610003 0.186569 0.306173
0.687870 0.184650 0.308944
0.720624 0.194319 0.314647
0.737193 0.211877 0.326369
0.000000 0.213650 0.303864
0.000000 0.222802 0.310618
0.000000 0.244178 0.318192
0.284836 0.285654 0.335423
0.516310 0.323642 0.348673
0.686696 0.340742 0.353708
0.764823 0.343596 0.354913
0.796319 0.355672 0.360589
0.813295 0.378578 0.372233
0.000000 0.354538 0.354974
0.000000 0.369395 0.363124
0.000000 0.405403 0.372566
0.309802 0.465125 0.384719
0.583674 0.523723 0.397378
0.769606 0.552099 0.400789
0.851686 0.557993 0.400996
0.882497 0.568685 0.405607
0.896982 0.588906 0.416177
0.000000 0.465190 0.393714
0.000000 0.486910 0.401580
0.000000 0.534884 0.411956
0.318642 0.610505 0.420834
0.629990 0.689874 0.432710
0.831075 0.732327 0.435442
0.919482 0.744575 0.435461
0.950020 0.751739 0.438613
0.960445 0.762176 0.448006
0.000000 0.513734 0.421998
0.000000 0.543034 0.432899
0.000000 0.594233 0.443419
0.321177 0.675082 0.450970
0.645876 0.763676 0.463607
0.854098 0.814596 0.466355
0.947793 0.832747 0.465981
0.979179 0.839327 0.468946
0.987848 0.843735 0.476710
0.000000 0.538853 0.467443
0.000000 0.575049 0.480837
0.000000 0.625269 0.491695
0.328294 0.702771 0.499820
0.649111 0.789713 0.515114
0.856148 0.842299 0.519533
0.952107 0.862811 0.519079
0.985447 0.869790 0.521070
0.993301 0.871911 0.527458
0.000000 0.572215 0.535248
0.000000 0.619007 0.552771
0.000000 0.664079 0.560843
0.379538 0.733691 0.573441
0.660921 0.808500 0.589766
0.852721 0.856586 0.597750
0.947651 0.877223 0.599031
0.982923 0.884773 0.601101
0.992751 0.887213 0.607058
0.000000 0.000000 0.324942
0.000000 0.000000 0.330313
0.077028 0.000000 0.344054
0.208000 0.000000 0.367811
0.377974 0.000000 0.387297
0.527612 0.000000 0.401353
0.612452 0.000000 0.409497
0.651245 0.000000 0.417097
0.668537 0.000000 0.425774
0.000000 0.000000 0.347020
0.000000 0.000000 0.352631
0.083477 0.000000 0.367644
0.225568 0.017248 0.392822
0.410404 0.054125 0.413586
0.564216 0.013868 0.425645
0.646517 0.000054 0.432724
0.680005 0.000000 0.439459
0.693836 0.000000 0.448678
0.000000 0.041128 0.383495
0.000000 0.069385 0.393348
0.040589 0.124285 0.413031
0.250085 0.151915 0.442302
0.457773 0.176158 0.464705
0.618364 0.181095 0.474922
0.696328 0.178828 0.478922
0.729043 0.189870 0.485723
0.745586 0.211144 0.498164
0.000000 0.225748 0.457727
0.000000 0.233686 0.466648
0.000000 0.261389 0.483728
0.271902 0.302988 0.506467
0.517932 0.339539 0.529955
0.691600 0.355671 0.540036
0.770708 0.358011 0.542567
0.802133 0.370395 0.548345
0.818871 0.394773 0.560562
0.000000 0.382114 0.521833
0.000000 0.397639 0.534037
0.000000 0.435908 0.552117
0.277602 0.491906 0.568587
0.577162 0.549520 0.593301
0.768299 0.576794 0.603102
0.852229 0.581971 0.604973
0.883358 0.592624 0.609533
0.897487 0.612710 0.618999
0.000000 0.499728 0.566908
0.000000 0.521090 0.578902
0.000000 0.569442 0.597562
0.252638 0.640325 0.611227
0.615504 0.719205 0.637318
0.823739 0.760733 0.647829
0.914608 0.772471 0.650106
0.946065 0.779517 0.652983
0.956381 0.789477 0.659714
0.000000 0.547501 0.593650
0.000000 0.576578 0.608311
0.000000 0.628785 0.627730
0.229566 0.704489 0.639419
0.627740 0.792559 0.666306
0.844234 0.842954 0.677687
0.940322 0.860901 0.680094
0.972797 0.867103 0.682661
0.981859 0.871318 0.687577
0.000000 0.569343 0.628607
0.000000 0.604997 0.646862
0.000000 0.656682 0.664997
0.250397 0.729542 0.676331
0.631196 0.816013 0.703919
0.845432 0.867843 0.716077
0.944056 0.888279 0.718998
0.978683 0.895284 0.720882
0.986613 0.896814 0.724401
0.000000 0.597185 0.675982
0.000000 0.644479 0.697450
0.000000 0.689929 0.710224
0.336820 0.756146 0.725200
0.645858 0.830373 0.750253
0.843379 0.877819 0.763836
0.940608 0.898568 0.767894
0.977063 0.905781 0.769043
0.986645 0.907231 0.771895
0.000000 0.000000 0.431810
0.000000 0.000000 0.438790
0.000000 0.000000 0.451923
0.210555 0.000000 0.482178
0.392521 0.000000 0.509259
0.544935 0.000000 0.528224
0.629762 0.000000 0.538363
0.668128 0.000000 0.546425
0.685167 0.000000 0.554279
0.000000 0.000000 0.461176
0.000000 0.000000 0.468688
0.013146 0.000000 0.482969
0.230272 0.000000 0.515916
0.424498 0.000000 0.544041
0.581719 0.000000 0.561655
0.664381 0.000000 0.570716
0.697462 0.000000 0.577283
0.711658 0.000000 0.587136
0.000000 0.000000 0.503864
0.000000 0.000185 0.512143
0.000000 0.088392 0.532552
0.247553 0.135430 0.568988
0.461221 0.158851 0.599246
0.624452 0.162749 0.614426
0.703521 0.159206 0.620066
0.736641 0.173302 0.627443
0.753311 0.200118 0.639615
0.000000 0.205142 0.575925
0.000000 0.223672 0.590727
0.000000 0.260082 0.614754
0.256529 0.310244 0.642611
0.516040 0.345914 0.675066
0.693525 0.361196 0.690419
0.774385 0.363170 0.694628
0.806453 0.375627 0.700533
0.823068 0.401631 0.711989
0.000000 0.392205 0.655051
0.000000 0.410352 0.670290
0.000000 0.448991 0.692222
0.227568 0.506476 0.712600
0.567160 0.563335 0.747420
0.764440 0.590095 0.763201
0.851059 0.595127 0.767251
0.882919 0.605240 0.771401
0.897317 0.625943 0.779708
0.000000 0.517814 0.705418
0.000000 0.540027 0.718620
0.000000 0.589318 0.743084
0.141474 0.658600 0.760124
0.598991 0.736437 0.796210
0.815349 0.777807 0.813656
0.909189 0.789296 0.818014
0.942069 0.796344 0.821003
0.953026 0.806368 0.825618
0.000000 0.569935 0.729675
0.000000 0.597743 0.746189
0.000000 0.649609 0.769123
0.124106 0.724153 0.785505
0.608932 0.810957 0.821435
0.834223 0.861397 0.840214
0.933555 0.879424 0.845676
0.967707 0.885611 0.847901
0.977306 0.889731 0.850763
0.000000 0.587588 0.751129
0.000000 0.624246 0.772703
0.000000 0.674774 0.793014
0.140400 0.747024 0.808900
0.613163 0.832681 0.844786
0.835777 0.884791 0.864013
0.937495 0.905710 0.870255
0.973673 0.912737 0.872314
0.983090 0.914766 0.874138
0.000000 0.612768 0.781882
0.000000 0.660095 0.806163
0.000000 0.705990 0.820804
0.290066 0.770103 0.837401
0.631355 0.844362 0.869791
0.834946 0.891895 0.888396
0.934858 0.912981 0.895300
0.973018 0.920562 0.897072
0.983229 0.922067 0.898277
0.000000 0.000000 0.499336
0.000000 0.000000 0.506828
0.000000 0.000000 0.523500
0.209474 0.000000 0.553976
0.401967 0.000000 0.587050
0.556743 0.000000 0.608502
0.642735 0.000000 0.620024
0.681550 0.000000 0.629340
0.698574 0.000000 0.637277
0.000000 0.000000 0.535459
0.000000 0.000000 0.544239
0.000147 0.000000 0.561968
0.230471 0.000000 0.595171
0.434373 0.000000 0.629218
0.595583 0.000000 0.650653
0.678374 0.000000 0.660198
0.712247 0.000000 0.668265
0.725850 0.000000 0.676923
0.000000 0.000000 0.579706
0.000000 0.000000 0.589019
0.000000 0.027052 0.607944
0.245068 0.124372 0.647758
0.464413 0.150597 0.683524
0.630384 0.151957 0.702769
0.710947 0.145303 0.709971
0.744394 0.163896 0.717615
0.761479 0.196849 0.729716
0.000000 0.194399 0.648866
0.000000 0.205233 0.662015
0.000000 0.255905 0.690942
0.245280 0.314598 0.723345
0.513794 0.349567 0.761764
0.694385 0.364623 0.781355
0.777397 0.366292 0.787509
0.810155 0.378162 0.793433
0.826960 0.405980 0.804112
0.000000 0.396303 0.733232
0.000000 0.411483 0.746989
0.000000 0.454593 0.773807
0.165156 0.511968 0.795096
0.558522 0.568070 0.836529
0.760552 0.595030 0.857342
0.849589 0.599529 0.863166
0.882422 0.609088 0.867252
0.897100 0.630269 0.874482
0.000000 0.525914 0.783785
0.000000 0.547934 0.799649
0.000000 0.596893 0.824517
0.096364 0.666023 0.844929
0.586129 0.742572 0.886694
0.808202 0.784134 0.909276
0.905085 0.795629 0.915997
0.939328 0.802499 0.919073
0.950459 0.812212 0.921872
0.000000 0.578123 0.804846
0.000000 0.605915 0.821709
0.000000 0.659031 0.848854
0.042296 0.732756 0.866973
0.594733 0.818537 0.908225
0.826201 0.869435 0.932283
0.928777 0.887650 0.940541
0.964528 0.894083 0.943120
0.974844 0.897929 0.944503
0.000000 0.595874 0.817135
0.000000 0.630872 0.838158
0.000000 0.683580 0.862762
0.087342 0.754395 0.879980
0.598906 0.839437 0.920403
0.828029 0.892288 0.944622
0.932968 0.913713 0.953671
0.970767 0.921079 0.956252
0.980864 0.923076 0.957109
0.000000 0.621407 0.837647
0.000000 0.667201 0.861195
0.000000 0.713030 0.878281
0.241906 0.775351 0.894657
0.620235 0.849912 0.931668
0.828100 0.897995 0.953874
0.930838 0.919630 0.963089
0.970675 0.927505 0.966168
0.981901 0.929472 0.966967
0.000000 0.000000 0.538456
0.000000 0.000000 0.546707
0.000000 0.000000 0.564476
0.216254 0.000000 0.596110
0.416206 0.000000 0.631273
0.574697 0.000000 0.655307
0.660343 0.000000 0.667940
0.697192 0.000000 0.675806
0.713273 0.000000 0.683919
0.000000 0.000000 0.579477
0.000000 0.000000 0.589734
0.000000 0.000000 0.608207
0.235520 0.000018 0.642491
0.444910 0.000030 0.678758
0.608405 0.000027 0.700906
0.692005 0.000015 0.711452
0.725145 0.000030 0.718574
0.738637 0.000000 0.727365
0.000000 0.000000 0.618309
0.000000 0.000013 0.628799
0.000000 0.051598 0.649792
0.245343 0.158716 0.691543
0.472963 0.182779 0.729994
0.641780 0.187450 0.751308
0.723802 0.183897 0.759461
0.757631 0.198663 0.767025
0.774722 0.229507 0.778277
0.000000 0.201473 0.682686
0.000000 0.224288 0.699605
0.000000 0.270785 0.728085
0.238827 0.332046 0.760745
0.515287 0.367852 0.801787
0.698635 0.382874 0.823482
0.783495 0.384503 0.830743
0.817108 0.396133 0.836940
0.833825 0.423002 0.846674
0.000000 0.401250 0.764258
0.000000 0.415229 0.777209
0.000000 0.460558 0.805793
0.136639 0.519095 0.828087
0.554580 0.575012 0.871903
0.758808 0.601923 0.894987
0.849660 0.606360 0.902186
0.883856 0.615898 0.906795
0.898478 0.635776 0.913016
0.000000 0.529010 0.813264
0.000000 0.552060 0.830358
0.000000 0.601379 0.856497
0.067490 0.668585 0.876151
0.578809 0.744194 0.919868
0.803433 0.785687 0.945072
0.902109 0.797144 0.953389
0.937952 0.803942 0.957071
0.950046 0.814342 0.959846
0.000000 0.579581 0.831858
0.000000 0.610483 0.852133
0.000000 0.662412 0.876621
0.000000 0.735217 0.896890
0.586648 0.819787 0.939622
0.820767 0.870901 0.966251
0.925530 0.889479 0.976166
0.962659 0.895960 0.979342
0.973744 0.900261 0.980638
0.000000 0.599133 0.842327
0.000000 0.636276 0.864089
0.000000 0.685790 0.886678
0.044638 0.756698 0.905172
0.591293 0.840954 0.947267
0.822803 0.894018 0.973765
0.929911 0.915934 0.984366
0.969108 0.923386 0.987605
0.979825 0.925569 0.988213
0.000000 0.623382 0.857604
0.000000 0.671325 0.882104
0.000000 0.714487 0.898137
0.203784 0.776437 0.914698
0.611969 0.850649 0.953208
0.822709 0.899334 0.977292
0.927689 0.921469 0.987938
0.969098 0.929541 0.991654
0.981155 0.931800 0.992306
0.000000 0.000000 0.585615
0.000000 0.000000 0.596180
0.000000 0.000000 0.614293
0.237826 0.000000 0.649609
0.441898 0.000000 0.685897
0.603645 0.000000 0.709496
0.688401 0.000000 0.720545
0.723064 0.000000 0.728869
0.736219 0.000000 0.737617
0.000000 0.000000 0.619682
0.000000 0.000000 0.631596
0.000000 0.060472 0.651448
0.247094 0.151699 0.692673
0.467754 0.176134 0.731323
0.634283 0.180075 0.753301
0.717158 0.173651 0.762114
0.752320 0.187402 0.770594
0.770095 0.223160 0.782072
0.000000 0.042359 0.648067
0.000000 0.103247 0.664557
0.000000 0.187154 0.696501
0.247082 0.253296 0.734858
0.493165 0.282771 0.774895
0.668076 0.293955 0.797336
0.752329 0.293682 0.805758
0.786946 0.305389 0.813083
0.804684 0.334971 0.823888
0.000000 0.262830 0.716304
0.000000 0.285208 0.733735
0.000000 0.329614 0.760757
0.231394 0.385672 0.789331
0.525173 0.426493 0.831542
0.713033 0.444797 0.854469
0.800669 0.447057 0.862312
0.835387 0.457944 0.868324
0.852074 0.484027 0.877044
0.000000 0.418486 0.778668
0.000000 0.438460 0.795178
0.000000 0.484892 0.822981
0.134786 0.543653 0.845270
0.555597 0.600511 0.888832
0.762203 0.629313 0.913038
0.855589 0.634545 0.921109
0.890935 0.642659 0.925490
0.905581 0.661419 0.931022
0.000000 0.534716 0.824853
0.000000 0.560345 0.841150
0.000000 0.608849 0.866706
0.069969 0.675708 0.887088
0.576438 0.750033 0.930597
0.800423 0.791558 0.956389
0.901283 0.803870 0.965728
0.938073 0.809806 0.969294
0.951057 0.820001 0.972219
0.000000 0.581818 0.839881
0.000000 0.614538 0.860812
0.000000 0.668105 0.886864
0.000000 0.737636 0.905714
0.583647 0.820396 0.948639
0.816066 0.870898 0.975735
0.922627 0.889837 0.986329
0.961450 0.896290 0.990010
0.972625 0.900163 0.990673
0.000000 0.602911 0.851523
0.000000 0.639417 0.872772
0.000000 0.690629 0.895011
0.056203 0.758500 0.912753
0.587480 0.840933 0.954762
0.817883 0.893640 0.981736
0.926920 0.916029 0.993309
0.967693 0.923827 0.997054
0.978504 0.925237 0.996711
0.000000 0.628361 0.865483
0.000000 0.674631 0.888268
0.000000 0.718360 0.905264
0.207213 0.777536 0.921019
0.606901 0.850201 0.959248
0.817606 0.898805 0.983881
0.924145 0.921405 0.995067
0.966905 0.929445 0.998871
0.980440 0.932183 0.999996
