tests/luts/davinci/DCI-P3 Kodak 2383 D65.cube
# Resolve Film Look LUT
#   Input: Cineon Log 
#        : floating point data (range 0.0 - 1.0)
#  Output: Kodak 2383 film stock 'look' with D65 White Point
#        : floating point data (range 0.0 - 1.0)
# Display: DCI-P3, Gamma 2.6
LUT_3D_SIZE 5
LUT_3D_INPUT_RANGE 0.0 1.0
0.041701 0.043656 0.054925
0.088691 0.056841 0.060082
0.338022 0.090922 0.065015
0.560971 0.057867 0.078355
0.618016 0.024784 0.084027
0.035019 0.087509 0.072851
0.110068 0.107049 0.078064
0.423450 0.161922 0.080575
0.653117 0.168449 0.089300
0.703208 0.189357 0.094201
0.000000 0.285219 0.125634
0.084627 0.333415 0.121564
0.564591 0.454456 0.092948
0.818267 0.491187 0.074823
0.865017 0.520120 0.070759
0.000000 0.435524 0.155573
0.000000 0.513471 0.139983
0.649274 0.689882 0.000000
0.936744 0.768552 0.000000
0.977937 0.780724 0.000000
0.000000 0.489238 0.184797
0.223102 0.585917 0.169401
0.684972 0.737634 0.118701
0.949962 0.808698 0.000000
0.993405 0.819270 0.057318
0.037880 0.045103 0.104900
0.091296 0.058009 0.113806
0.355991 0.091227 0.126289
0.582201 0.037927 0.135411
0.639868 0.000000 0.147424
0.000000 0.100567 0.136953
0.108157 0.119418 0.145469
0.443908 0.174861 0.158908
0.677694 0.179985 0.165217
0.727833 0.204990 0.178746
0.000000 0.322352 0.211817
0.000000 0.371738 0.214479
0.585934 0.496070 0.217207
0.846713 0.531799 0.214236
0.892550 0.562199 0.227069
0.000000 0.475814 0.264742
0.000000 0.556303 0.268105
0.658809 0.730939 0.258555
0.950670 0.801551 0.247157
0.989933 0.812839 0.258756
0.000000 0.540639 0.386894
0.000000 0.632341 0.398751
0.676409 0.782579 0.413775
0.954353 0.852168 0.414691
0.998363 0.862786 0.426534
0.000000 0.000000 0.324942
0.077028 0.000000 0.344054
0.377974 0.000000 0.387297
0.612452 0.000000 0.409497
0.668537 0.000000 0.425774
0.000000 0.041128 0.383495
0.040589 0.124285 0.413031
0.457773 0.176158 0.464705
0.696328 0.178828 0.478922
0.745586 0.211144 0.498164
0.000000 0.382114 0.521833
0.000000 0.435908 0.552117
0.577162 0.549520 0.593301
0.852229 0.581971 0.604973
0.897487 0.612710 0.618999
0.000000 0.547501 0.593650
0.000000 0.628785 0.627730
0.627740 0.792559 0.666306
0.940322 0.860901 0.680094
0.981859 0.871318 0.687577
0.000000 0.597185 0.675982
0.000000 0.689929 0.710224
0.645858 0.830373 0.750253
0.940608 0.898568 0.767894
0.986645 0.907231 0.771895
0.000000 0.000000 0.499336
0.000000 0.000000 0.523500
0.401967 0.000000 0.587050
0.642735 0.000000 0.620024
0.698574 0.000000 0.637277
0.000000 0.000000 0.579706
0.000000 0.027052 0.607944
0.464413 0.150597 0.683524
0.710947 0.145303 0.709971
0.761479 0.196849 0.729716
0.000000 0.396303 0.733232
0.000000 0.454593 0.773807
0.558522 0.568070 0.836529
0.849589 0.599529 0.863166
0.897100 0.630269 0.874482
0.000000 0.578123 0.804846
0.000000 0.659031 0.848854
0.594733 0.818537 0.908225
0.928777 0.887650 0.940541
0.974844 0.897929 0.944503
0.000000 0.621407 0.837647
0.000000 0.713030 0.878281
0.620235 0.849912 0.931668
0.930838 0.919630 0.963089
0.981901 0.929472 0.966967
0.000000 0.000000 0.585615
0.000000 0.000000 0.614293
0.441898 0.000000 0.685897
0.688401 0.000000 0.720545
0.736219 0.000000 0.737617
0.000000 0.042359 0.648067
0.000000 0.187154 0.696501
0.493165 0.282771 0.774895
0.752329 0.293682 0.805758
0.804684 0.334971 0.823888
0.000000 0.418486 0.778668
0.000000 0.484892 0.822981
0.555597 0.600511 0.888832
0.855589 0.634545 0.921109
0.905581 0.661419 0.931022
0.000000 0.581818 0.839881
0.000000 0.668105 0.886864
0.583647 0.820396 0.948639
0.922627 0.889837 0.986329
0.972625 0.900163 0.990673
0.000000 0.628361 0.865483
0.000000 0.718360 0.905264
0.606901 0.850201 0.959248
0.924145 0.921405 0.995067
0.980440 0.932183 0.999996
