tests/luts/davinci/Gamma 2.4 to HDR 1000 nits.cube
# DaVinci Resolve Cube (1D shaper LUT).

LUT_1D_SIZE 4096
LUT_1D_INPUT_RANGE 0.0000000000 2.6101572157

0.0000007310 0.0000007310 0.0000007310
0.0001804862 0.0001804862 0.0001804862
0.0004634408 0.0004634408 0.0004634408
0.0008185295 0.0008185295 0.0008185295
0.0012294332 0.0012294332 0.0012294332
0.0016856422 0.0016856422 0.0016856422
0.0021795898 0.0021795898 0.0021795898
0.0027056739 0.0027056739 0.0027056739
0.0032594001 0.0032594001 0.0032594001
0.0038371016 0.0038371016 0.0038371016
0.0044358838 0.0044358838 0.0044358838
0.0050532087 0.0050532087 0.0050532087
0.0056870310 0.0056870310 0.0056870310
0.0063354131 0.0063354131 0.0063354131
0.0069968947 0.0069968947 0.0069968947
0.0076701399 0.0076701399 0.0076701399
0.0083537865 0.0083537865 0.0083537865
0.0090468880 0.0090468880 0.0090468880
0.0097485874 0.0097485874 0.0097485874
0.0104579413 0.0104579413 0.0104579413
0.0111740949 0.0111740949 0.0111740949
0.0118964463 0.0118964463 0.0118964463
0.0126244780 0.0126244780 0.0126244780
0.0133576188 0.0133576188 0.0133576188
0.0140953092 0.0140953092 0.0140953092
0.0148370378 0.0148370378 0.0148370378
0.0155825000 0.0155825000 0.0155825000
0.0163313281 0.0163313281 0.0163313281
0.0170829166 0.0170829166 0.0170829166
0.0178371146 0.0178371146 0.0178371146
0.0185939074 0.0185939074 0.0185939074
0.0193527229 0.0193527229 0.0193527229
0.0201130733 0.0201130733 0.0201130733
0.0208753757 0.0208753757 0.0208753757
0.0216388423 0.0216388423 0.0216388423
0.0224034451 0.0224034451 0.0224034451
0.0231688842 0.0231688842 0.0231688842
0.0239355899 0.0239355899 0.0239355899
0.0247026235 0.0247026235 0.0247026235
0.0254702047 0.0254702047 0.0254702047
0.0262382012 0.0262382012 0.0262382012
0.0270063225 0.0270063225 0.0270063225
0.0277747735 0.0277747735 0.0277747735
0.0285429060 0.0285429060 0.0285429060
0.0293111093 0.0293111093 0.0293111093
0.0300791711 0.0300791711 0.0300791711
0.0308470931 0.0308470931 0.0308470931
0.0316143334 0.0316143334 0.0316143334
0.0323811732 0.0323811732 0.0323811732
0.0331474990 0.0331474990 0.0331474990
0.0339132510 0.0339132510 0.0339132510
0.0346786045 0.0346786045 0.0346786045
0.0354427546 0.0354427546 0.0354427546
0.0362064876 0.0362064876 0.0362064876
0.0369692482 0.0369692482 0.0369692482
0.0377308577 0.0377308577 0.0377308577
0.0384917445 0.0384917445 0.0384917445
0.0392520092 0.0392520092 0.0392520092
0.0400108360 0.0400108360 0.0400108360
0.0407687798 0.0407687798 0.0407687798
0.0415254496 0.0415254496 0.0415254496
0.0422810838 0.0422810838 0.0422810838
0.0430357717 0.0430357717 0.0430357717
0.0437889770 0.0437889770 0.0437889770
0.0445410386 0.0445410386 0.0445410386
0.0452919006 0.0452919006 0.0452919006
0.0460415334 0.0460415334 0.0460415334
0.0467896946 0.0467896946 0.0467896946
0.0475366227 0.0475366227 0.0475366227
0.0482823476 0.0482823476 0.0482823476
0.0490266941 0.0490266941 0.0490266941
0.0497692414 0.0497692414 0.0497692414
0.0505110621 0.0505110621 0.0505110621
0.0512507856 0.0512507856 0.0512507856
0.0519895367 0.0519895367 0.0519895367
0.0527269654 0.0527269654 0.0527269654
0.0534627214 0.0534627214 0.0534627214
0.0541967191 0.0541967191 0.0541967191
0.0549299531 0.0549299531 0.0549299531
0.0556613058 0.0556613058 0.0556613058
0.0563912801 0.0563912801 0.0563912801
0.0571195669 0.0571195669 0.0571195669
0.0578464307 0.0578464307 0.0578464307
0.0585718639 0.0585718639 0.0585718639
0.0592958778 0.0592958778 0.0592958778
0.0600184985 0.0600184985 0.0600184985
0.0607394576 0.0607394576 0.0607394576
0.0614581928 0.0614581928 0.0614581928
0.0621762425 0.0621762425 0.0621762425
0.0628921688 0.0628921688 0.0628921688
0.0636072531 0.0636072531 0.0636072531
0.0643206611 0.0643206611 0.0643206611
0.0650321543 0.0650321543 0.0650321543
0.0657421499 0.0657421499 0.0657421499
0.0664504170 0.0664504170 0.0664504170
0.0671577305 0.0671577305 0.0671577305
0.0678632334 0.0678632334 0.0678632334
0.0685670525 0.0685670525 0.0685670525
0.0692693144 0.0692693144 0.0692693144
0.0699698403 0.0699698403 0.0699698403
0.0706694573 0.0706694573 0.0706694573
0.0713669658 0.0713669658 0.0713669658
0.0720632151 0.0720632151 0.0720632151
0.0727583915 0.0727583915 0.0727583915
0.0734516308 0.0734516308 0.0734516308
0.0741430968 0.0741430968 0.0741430968
0.0748333633 0.0748333633 0.0748333633
0.0755211711 0.0755211711 0.0755211711
0.0762081891 0.0762081891 0.0762081891
0.0768939108 0.0768939108 0.0768939108
0.0775774345 0.0775774345 0.0775774345
0.0782593638 0.0782593638 0.0782593638
0.0789410770 0.0789410770 0.0789410770
0.0796193853 0.0796193853 0.0796193853
0.0802975968 0.0802975968 0.0802975968
0.0809736550 0.0809736550 0.0809736550
0.0816482008 0.0816482008 0.0816482008
0.0823223069 0.0823223069 0.0823223069
0.0829934552 0.0829934552 0.0829934552
0.0836635083 0.0836635083 0.0836635083
0.0843319520 0.0843319520 0.0843319520
0.0849994868 0.0849994868 0.0849994868
0.0856664255 0.0856664255 0.0856664255
0.0863293186 0.0863293186 0.0863293186
0.0869926363 0.0869926363 0.0869926363
0.0876533389 0.0876533389 0.0876533389
0.0883134380 0.0883134380 0.0883134380
0.0889723971 0.0889723971 0.0889723971
0.0896292701 0.0896292701 0.0896292701
0.0902839303 0.0902839303 0.0902839303
0.0909389034 0.0909389034 0.0909389034
0.0915914699 0.0915914699 0.0915914699
0.0922423974 0.0922423974 0.0922423974
0.0928916037 0.0928916037 0.0928916037
0.0935394242 0.0935394242 0.0935394242
0.0941857770 0.0941857770 0.0941857770
0.0948319510 0.0948319510 0.0948319510
0.0954755619 0.0954755619 0.0954755619
0.0961183682 0.0961183682 0.0961183682
0.0967593566 0.0967593566 0.0967593566
0.0973993838 0.0973993838 0.0973993838
0.0980369449 0.0980369449 0.0980369449
0.0986748040 0.0986748040 0.0986748040
0.0993100330 0.0993100330 0.0993100330
0.0999439806 0.0999439806 0.0999439806
0.1005760804 0.1005760804 0.1005760804
0.1012082100 0.1012082100 0.1012082100
0.1018373668 0.1018373668 0.1018373668
0.1024664193 0.1024664193 0.1024664193
0.1030938253 0.1030938253 0.1030938253
0.1037195027 0.1037195027 0.1037195027
0.1043448895 0.1043448895 0.1043448895
0.1049674079 0.1049674079 0.1049674079
0.1055884808 0.1055884808 0.1055884808
0.1062095836 0.1062095836 0.1062095836
0.1068291366 0.1068291366 0.1068291366
0.1074460223 0.1074460223 0.1074460223
0.1080622450 0.1080622450 0.1080622450
0.1086767018 0.1086767018 0.1086767018
0.1092909053 0.1092909053 0.1092909053
0.1099032313 0.1099032313 0.1099032313
0.1105157360 0.1105157360 0.1105157360
0.1111246347 0.1111246347 0.1111246347
0.1117336005 0.1117336005 0.1117336005
0.1123404354 0.1123404354 0.1123404354
0.1129461601 0.1129461601 0.1129461601
0.1135512665 0.1135512665 0.1135512665
0.1141546145 0.1141546145 0.1141546145
0.1147577986 0.1147577986 0.1147577986
0.1153568849 0.1153568849 0.1153568849
0.1159573793 0.1159573793 0.1159573793
0.1165558994 0.1165558994 0.1165558994
0.1171535030 0.1171535030 0.1171535030
0.1177484468 0.1177484468 0.1177484468
0.1183423698 0.1183423698 0.1183423698
0.1189375371 0.1189375371 0.1189375371
0.1195287257 0.1195287257 0.1195287257
0.1201204956 0.1201204956 0.1201204956
0.1207087561 0.1207087561 0.1207087561
0.1212969273 0.1212969273 0.1212969273
0.1218843982 0.1218843982 0.1218843982
0.1224717274 0.1224717274 0.1224717274
0.1230559051 0.1230559051 0.1230559051
0.1236404479 0.1236404479 0.1236404479
0.1242223457 0.1242223457 0.1242223457
0.1248033270 0.1248033270 0.1248033270
0.1253833622 0.1253833622 0.1253833622
0.1259618104 0.1259618104 0.1259618104
0.1265410483 0.1265410483 0.1265410483
0.1271167845 0.1271167845 0.1271167845
0.1276926547 0.1276926547 0.1276926547
0.1282667667 0.1282667667 0.1282667667
0.1288390756 0.1288390756 0.1288390756
0.1294107884 0.1294107884 0.1294107884
0.1299818605 0.1299818605 0.1299818605
0.1305510253 0.1305510253 0.1305510253
0.1311207414 0.1311207414 0.1311207414
0.1316878498 0.1316878498 0.1316878498
0.1322535425 0.1322535425 0.1322535425
0.1328190714 0.1328190714 0.1328190714
0.1333818436 0.1333818436 0.1333818436
0.1339450330 0.1339450330 0.1339450330
0.1345066875 0.1345066875 0.1345066875
0.1350680590 0.1350680590 0.1350680590
0.1356271654 0.1356271654 0.1356271654
0.1361846179 0.1361846179 0.1361846179
0.1367430091 0.1367430091 0.1367430091
0.1372990310 0.1372990310 0.1372990310
0.1378533095 0.1378533095 0.1378533095
0.1384077817 0.1384077817 0.1384077817
0.1389597803 0.1389597803 0.1389597803
0.1395125985 0.1395125985 0.1395125985
0.1400635540 0.1400635540 0.1400635540
0.1406125724 0.1406125724 0.1406125724
0.1411610097 0.1411610097 0.1411610097
0.1417095065 0.1417095065 0.1417095065
0.1422553062 0.1422553062 0.1422553062
0.1428011209 0.1428011209 0.1428011209
0.1433462501 0.1433462501 0.1433462501
0.1438885778 0.1438885778 0.1438885778
0.1444308311 0.1444308311 0.1444308311
0.1449716240 0.1449716240 0.1449716240
0.1455123127 0.1455123127 0.1455123127
0.1460521817 0.1460521817 0.1460521817
0.1465897858 0.1465897858 0.1465897858
0.1471272260 0.1471272260 0.1471272260
0.1476630419 0.1476630419 0.1476630419
0.1481979489 0.1481979489 0.1481979489
0.1487326026 0.1487326026 0.1487326026
0.1492648572 0.1492648572 0.1492648572
0.1497975588 0.1497975588 0.1497975588
0.1503285021 0.1503285021 0.1503285021
0.1508584172 0.1508584172 0.1508584172
0.1513887048 0.1513887048 0.1513887048
0.1519149840 0.1519149840 0.1519149840
0.1524430811 0.1524430811 0.1524430811
0.1529693007 0.1529693007 0.1529693007
0.1534936130 0.1534936130 0.1534936130
0.1540182382 0.1540182382 0.1540182382
0.1545416415 0.1545416415 0.1545416415
0.1550638229 0.1550638229 0.1550638229
0.1555854976 0.1555854976 0.1555854976
0.1561059058 0.1561059058 0.1561059058
0.1566257626 0.1566257626 0.1566257626
0.1571435481 0.1571435481 0.1571435481
0.1576615125 0.1576615125 0.1576615125
0.1581781209 0.1581781209 0.1581781209
0.1586933434 0.1586933434 0.1586933434
0.1592079252 0.1592079252 0.1592079252
0.1597226262 0.1597226262 0.1597226262
0.1602335572 0.1602335572 0.1602335572
0.1607468873 0.1607468873 0.1607468873
0.1612564176 0.1612564176 0.1612564176
0.1617675275 0.1617675275 0.1617675275
0.1622763425 0.1622763425 0.1622763425
0.1627843827 0.1627843827 0.1627843827
0.1632924378 0.1632924378 0.1632924378
0.1637973189 0.1637973189 0.1637973189
0.1643045396 0.1643045396 0.1643045396
0.1648077518 0.1648077518 0.1648077518
0.1653117090 0.1653117090 0.1653117090
0.1658155769 0.1658155769 0.1658155769
0.1663161665 0.1663161665 0.1663161665
0.1668174565 0.1668174565 0.1668174565
0.1673178077 0.1673178077 0.1673178077
0.1678172350 0.1678172350 0.1678172350
0.1683157086 0.1683157086 0.1683157086
0.1688131988 0.1688131988 0.1688131988
0.1693097055 0.1693097055 0.1693097055
0.1698051989 0.1698051989 0.1698051989
0.1702996790 0.1702996790 0.1702996790
0.1707947552 0.1707947552 0.1707947552
0.1712863147 0.1712863147 0.1712863147
0.1717792600 0.1717792600 0.1717792600
0.1722711325 0.1722711325 0.1722711325
0.1727619022 0.1727619022 0.1727619022
0.1732515544 0.1732515544 0.1732515544
0.1737400740 0.1737400740 0.1737400740
0.1742282808 0.1742282808 0.1742282808
0.1747153252 0.1747153252 0.1747153252
0.1752020270 0.1752020270 0.1752020270
0.1756866872 0.1756866872 0.1756866872
0.1761709899 0.1761709899 0.1761709899
0.1766566038 0.1766566038 0.1766566038
0.1771384329 0.1771384329 0.1771384329
0.1776207089 0.1776207089 0.1776207089
0.1781034172 0.1781034172 0.1781034172
0.1785822809 0.1785822809 0.1785822809
0.1790624112 0.1790624112 0.1790624112
0.1795420945 0.1795420945 0.1795420945
0.1800195873 0.1800195873 0.1800195873
0.1804966033 0.1804966033 0.1804966033
0.1809740067 0.1809740067 0.1809740067
0.1814500242 0.1814500242 0.1814500242
0.1819246709 0.1819246709 0.1819246709
0.1823987812 0.1823987812 0.1823987812
0.1828732342 0.1828732342 0.1828732342
0.1833453923 0.1833453923 0.1833453923
0.1838161051 0.1838161051 0.1838161051
0.1842871159 0.1842871159 0.1842871159
0.1847584397 0.1847584397 0.1847584397
0.1852282882 0.1852282882 0.1852282882
0.1856966317 0.1856966317 0.1856966317
0.1861643642 0.1861643642 0.1861643642
0.1866323650 0.1866323650 0.1866323650
0.1870979369 0.1870979369 0.1870979369
0.1875628382 0.1875628382 0.1875628382
0.1880279928 0.1880279928 0.1880279928
0.1884924769 0.1884924769 0.1884924769
0.1889562756 0.1889562756 0.1889562756
0.1894184649 0.1894184649 0.1894184649
0.1898799688 0.1898799688 0.1898799688
0.1903407425 0.1903407425 0.1903407425
0.1908007860 0.1908007860 0.1908007860
0.1912600994 0.1912600994 0.1912600994
0.1917195767 0.1917195767 0.1917195767
0.1921783090 0.1921783090 0.1921783090
0.1926353425 0.1926353425 0.1926353425
0.1930925250 0.1930925250 0.1930925250
0.1935479939 0.1935479939 0.1935479939
0.1940026581 0.1940026581 0.1940026581
0.1944565177 0.1944565177 0.1944565177
0.1949114203 0.1949114203 0.1949114203
0.1953636259 0.1953636259 0.1953636259
0.1958168596 0.1958168596 0.1958168596
0.1962683201 0.1962683201 0.1962683201
0.1967198551 0.1967198551 0.1967198551
0.1971695870 0.1971695870 0.1971695870
0.1976174861 0.1976174861 0.1976174861
0.1980682909 0.1980682909 0.1980682909
0.1985143870 0.1985143870 0.1985143870
0.1989633888 0.1989633888 0.1989633888
0.1994095743 0.1994095743 0.1994095743
0.1998548359 0.1998548359 0.1998548359
0.2003000975 0.2003000975 0.2003000975
0.2007453889 0.2007453889 0.2007453889
0.2011887580 0.2011887580 0.2011887580
0.2016311735 0.2016311735 0.2016311735
0.2020735741 0.2020735741 0.2020735741
0.2025169283 0.2025169283 0.2025169283
0.2029573470 0.2029573470 0.2029573470
0.2033987045 0.2033987045 0.2033987045
0.2038361430 0.2038361430 0.2038361430
0.2042764574 0.2042764574 0.2042764574
0.2047137767 0.2047137767 0.2047137767
0.2051520348 0.2051520348 0.2051520348
0.2055902332 0.2055902332 0.2055902332
0.2060253918 0.2060253918 0.2060253918
0.2064614743 0.2064614743 0.2064614743
0.2068964690 0.2068964690 0.2068964690
0.2073303908 0.2073303908 0.2073303908
0.2077642232 0.2077642232 0.2077642232
0.2081979364 0.2081979364 0.2081979364
0.2086295485 0.2086295485 0.2086295485
0.2090620548 0.2090620548 0.2090620548
0.2094924152 0.2094924152 0.2094924152
0.2099236697 0.2099236697 0.2099236697
0.2103537619 0.2103537619 0.2103537619
0.2107827216 0.2107827216 0.2107827216
0.2112105191 0.2112105191 0.2112105191
0.2116381526 0.2116381526 0.2116381526
0.2120656222 0.2120656222 0.2120656222
0.2124929279 0.2124929279 0.2124929279
0.2129180282 0.2129180282 0.2129180282
0.2133429497 0.2133429497 0.2133429497
0.2137686908 0.2137686908 0.2137686908
0.2141922116 0.2141922116 0.2141922116
0.2146165520 0.2146165520 0.2146165520
0.2150375992 0.2150375992 0.2150375992
0.2154594511 0.2154594511 0.2154594511
0.2158821374 0.2158821374 0.2158821374
0.2163025290 0.2163025290 0.2163025290
0.2167226821 0.2167226821 0.2167226821
0.2171426117 0.2171426117 0.2171426117
0.2175622880 0.2175622880 0.2175622880
0.2179796547 0.2179796547 0.2179796547
0.2183967382 0.2183967382 0.2183967382
0.2188156843 0.2188156843 0.2188156843
0.2192322612 0.2192322612 0.2192322612
0.2196475118 0.2196475118 0.2196475118
0.2200635374 0.2200635374 0.2200635374
0.2204782367 0.2204782367 0.2204782367
0.2208915800 0.2208915800 0.2208915800
0.2213046402 0.2213046402 0.2213046402
0.2217184603 0.2217184603 0.2217184603
0.2221309245 0.2221309245 0.2221309245
0.2225430608 0.2225430608 0.2225430608
0.2229548991 0.2229548991 0.2229548991
0.2233632058 0.2233632058 0.2233632058
0.2237743884 0.2237743884 0.2237743884
0.2241841853 0.2241841853 0.2241841853
0.2245925665 0.2245925665 0.2245925665
0.2250027508 0.2250027508 0.2250027508
0.2254093587 0.2254093587 0.2254093587
0.2258166969 0.2258166969 0.2258166969
0.2262226045 0.2262226045 0.2262226045
0.2266281247 0.2266281247 0.2266281247
0.2270343751 0.2270343751 0.2270343751
0.2274391800 0.2274391800 0.2274391800
0.2278424948 0.2278424948 0.2278424948
0.2282465249 0.2282465249 0.2282465249
0.2286501676 0.2286501676 0.2286501676
0.2290534079 0.2290534079 0.2290534079
0.2294551581 0.2294551581 0.2294551581
0.2298565060 0.2298565060 0.2298565060
0.2302563488 0.2302563488 0.2302563488
0.2306568772 0.2306568772 0.2306568772
0.2310569733 0.2310569733 0.2310569733
0.2314566523 0.2314566523 0.2314566523
0.2318547964 0.2318547964 0.2318547964
0.2322536260 0.2322536260 0.2322536260
0.2326497734 0.2326497734 0.2326497734
0.2330477238 0.2330477238 0.2330477238
0.2334440947 0.2334440947 0.2334440947
0.2338400185 0.2338400185 0.2338400185
0.2342343628 0.2342343628 0.2342343628
0.2346304804 0.2346304804 0.2346304804
0.2350227684 0.2350227684 0.2350227684
0.2354179472 0.2354179472 0.2354179472
0.2358104140 0.2358104140 0.2358104140
0.2362035066 0.2362035066 0.2362035066
0.2365961224 0.2365961224 0.2365961224
0.2369882464 0.2369882464 0.2369882464
0.2373776138 0.2373776138 0.2373776138
0.2377698869 0.2377698869 0.2377698869
0.2381570935 0.2381570935 0.2381570935
0.2385483384 0.2385483384 0.2385483384
0.2389367968 0.2389367968 0.2389367968
0.2393258810 0.2393258810 0.2393258810
0.2397132963 0.2397132963 0.2397132963
0.2401001900 0.2401001900 0.2401001900
0.2404876947 0.2404876947 0.2404876947
0.2408735007 0.2408735007 0.2408735007
0.2412587702 0.2412587702 0.2412587702
0.2416435033 0.2416435033 0.2416435033
0.2420288324 0.2420288324 0.2420288324
0.2424136102 0.2424136102 0.2424136102
0.2427966595 0.2427966595 0.2427966595
0.2431791574 0.2431791574 0.2431791574
0.2435633987 0.2435633987 0.2435633987
0.2439447492 0.2439447492 0.2439447492
0.2443255186 0.2443255186 0.2443255186
0.2447068840 0.2447068840 0.2447068840
0.2450876534 0.2450876534 0.2450876534
0.2454690039 0.2454690039 0.2454690039
0.2458474189 0.2458474189 0.2458474189
0.2462264150 0.2462264150 0.2462264150
0.2466059774 0.2466059774 0.2466059774
0.2469849437 0.2469849437 0.2469849437
0.2473609298 0.2473609298 0.2473609298
0.2477386594 0.2477386594 0.2477386594
0.2481157929 0.2481157929 0.2481157929
0.2484922856 0.2484922856 0.2484922856
0.2488681525 0.2488681525 0.2488681525
0.2492422014 0.2492422014 0.2492422014
0.2496168166 0.2496168166 0.2496168166
0.2499907762 0.2499907762 0.2499907762
0.2503640950 0.2503640950 0.2503640950
0.2507391572 0.2507391572 0.2507391572
0.2511111796 0.2511111796 0.2511111796
0.2514837682 0.2514837682 0.2514837682
0.2518556714 0.2518556714 0.2518556714
0.2522269189 0.2522269189 0.2522269189
0.2525974810 0.2525974810 0.2525974810
0.2529686093 0.2529686093 0.2529686093
0.2533378303 0.2533378303 0.2533378303
0.2537063956 0.2537063956 0.2537063956
0.2540754676 0.2540754676 0.2540754676
0.2544438541 0.2544438541 0.2544438541
0.2548127770 0.2548127770 0.2548127770
0.2551797926 0.2551797926 0.2551797926
0.2555473149 0.2555473149 0.2555473149
0.2559141517 0.2559141517 0.2559141517
0.2562790513 0.2562790513 0.2562790513
0.2566456795 0.2566456795 0.2566456795
0.2570103705 0.2570103705 0.2570103705
0.2573743463 0.2573743463 0.2573743463
0.2577400804 0.2577400804 0.2577400804
0.2581025958 0.2581025958 0.2581025958
0.2584656477 0.2584656477 0.2584656477
0.2588304281 0.2588304281 0.2588304281
0.2591919899 0.2591919899 0.2591919899
0.2595528066 0.2595528066 0.2595528066
0.2599153817 0.2599153817 0.2599153817
0.2602759600 0.2602759600 0.2602759600
0.2606382668 0.2606382668 0.2606382668
0.2609985769 0.2609985769 0.2609985769
0.2613556385 0.2613556385 0.2613556385
0.2617169321 0.2617169321 0.2617169321
0.2620749772 0.2620749772 0.2620749772
0.2624334991 0.2624334991 0.2624334991
0.2627912462 0.2627912462 0.2627912462
0.2631494701 0.2631494701 0.2631494701
0.2635056376 0.2635056376 0.2635056376
0.2638623118 0.2638623118 0.2638623118
0.2642194629 0.2642194629 0.2642194629
0.2645745575 0.2645745575 0.2645745575
0.2649288476 0.2649288476 0.2649288476
0.2652848661 0.2652848661 0.2652848661
0.2656388283 0.2656388283 0.2656388283
0.2659919858 0.2659919858 0.2659919858
0.2663456202 0.2663456202 0.2663456202
0.2666997015 0.2666997015 0.2666997015
0.2670516968 0.2670516968 0.2670516968
0.2674054503 0.2674054503 0.2674054503
0.2677558064 0.2677558064 0.2677558064
0.2681078911 0.2681078911 0.2681078911
0.2684578896 0.2684578896 0.2684578896
0.2688083053 0.2688083053 0.2688083053
0.2691591978 0.2691591978 0.2691591978
0.2695079744 0.2695079744 0.2695079744
0.2698597610 0.2698597610 0.2698597610
0.2702068388 0.2702068388 0.2702068388
0.2705543637 0.2705543637 0.2705543637
0.2709023058 0.2709023058 0.2709023058
0.2712520063 0.2712520063 0.2712520063
0.2715969682 0.2715969682 0.2715969682
0.2719436586 0.2719436586 0.2719436586
0.2722907960 0.2722907960 0.2722907960
0.2726370394 0.2726370394 0.2726370394
0.2729824185 0.2729824185 0.2729824185
0.2733269334 0.2733269334 0.2733269334
0.2736718953 0.2736718953 0.2736718953
0.2740159631 0.2740159631 0.2740159631
0.2743591368 0.2743591368 0.2743591368
0.2747027278 0.2747027278 0.2747027278
0.2750454545 0.2750454545 0.2750454545
0.2753899097 0.2753899097 0.2753899097
0.2757321596 0.2757321596 0.2757321596
0.2760721743 0.2760721743 0.2760721743
0.2764139473 0.2764139473 0.2764139473
0.2767561376 0.2767561376 0.2767561376
0.2770974040 0.2770974040 0.2770974040
0.2774364352 0.2774364352 0.2774364352
0.2777758837 0.2777758837 0.2777758837
0.2781157494 0.2781157494 0.2781157494
0.2784546912 0.2784546912 0.2784546912
0.2787927091 0.2787927091 0.2787927091
0.2791311443 0.2791311443 0.2791311443
0.2794699669 0.2794699669 0.2794699669
0.2798065245 0.2798065245 0.2798065245
0.2801434696 0.2801434696 0.2801434696
0.2804794908 0.2804794908 0.2804794908
0.2808159292 0.2808159292 0.2808159292
0.2811514139 0.2811514139 0.2811514139
0.2814886272 0.2814886272 0.2814886272
0.2818235457 0.2818235457 0.2818235457
0.2821575105 0.2821575105 0.2821575105
0.2824932039 0.2824932039 0.2824932039
0.2828266323 0.2828266323 0.2828266323
0.2831604183 0.2831604183 0.2831604183
0.2834918797 0.2834918797 0.2834918797
0.2838250995 0.2838250995 0.2838250995
0.2841573358 0.2841573358 0.2841573358
0.2844899595 0.2844899595 0.2844899595
0.2848215997 0.2848215997 0.2848215997
0.2851536274 0.2851536274 0.2851536274
0.2854833305 0.2854833305 0.2854833305
0.2858133912 0.2858133912 0.2858133912
0.2861438096 0.2861438096 0.2861438096
0.2864732742 0.2864732742 0.2864732742
0.2868044674 0.2868044674 0.2868044674
0.2871319354 0.2871319354 0.2871319354
0.2874625027 0.2874625027 0.2874625027
0.2877893150 0.2877893150 0.2877893150
0.2881151438 0.2881151438 0.2881151438
0.2884454429 0.2884454429 0.2884454429
0.2887706161 0.2887706161 0.2887706161
0.2890975475 0.2890975475 0.2890975475
0.2894248068 0.2894248068 0.2894248068
0.2897510827 0.2897510827 0.2897510827
0.2900763154 0.2900763154 0.2900763154
0.2904005349 0.2904005349 0.2904005349
0.2907264829 0.2907264829 0.2907264829
0.2910500467 0.2910500467 0.2910500467
0.2913753092 0.2913753092 0.2913753092
0.2916995883 0.2916995883 0.2916995883
0.2920227945 0.2920227945 0.2920227945
0.2923449576 0.2923449576 0.2923449576
0.2926688790 0.2926688790 0.2926688790
0.2929903865 0.2929903865 0.2929903865
0.2933135927 0.2933135927 0.2933135927
0.2936357856 0.2936357856 0.2936357856
0.2939555049 0.2939555049 0.2939555049
0.2942769825 0.2942769825 0.2942769825
0.2945973873 0.2945973873 0.2945973873
0.2949181497 0.2949181497 0.2949181497
0.2952378392 0.2952378392 0.2952378392
0.2955578864 0.2955578864 0.2955578864
0.2958754301 0.2958754301 0.2958754301
0.2961947322 0.2961947322 0.2961947322
0.2965129614 0.2965129614 0.2965129614
0.2968315184 0.2968315184 0.2968315184
0.2971504331 0.2971504331 0.2971504331
0.2974668443 0.2974668443 0.2974668443
0.2977849841 0.2977849841 0.2977849841
0.2980992198 0.2980992198 0.2980992198
0.2984180450 0.2984180450 0.2984180450
0.2987315059 0.2987315059 0.2987315059
0.2990495563 0.2990495563 0.2990495563
0.2993651032 0.2993651032 0.2993651032
0.2996795475 0.2996795475 0.2996795475
0.2999943197 0.2999943197 0.2999943197
0.3003079891 0.3003079891 0.3003079891
0.3006219566 0.3006219566 0.3006219566
0.3009348512 0.3009348512 0.3009348512
0.3012494743 0.3012494743 0.3012494743
0.3015615642 0.3015615642 0.3015615642
0.3018739522 0.3018739522 0.3018739522
0.3021852374 0.3021852374 0.3021852374
0.3024997115 0.3024997115 0.3024997115
0.3028101623 0.3028101623 0.3028101623
